(Filename: raptorScrews.tap)
(Post processor: EasyCNC.scpost)
(Date: 20/03/2011)
G71 (Units: Metric)
G40
G90
(Part: raptor)
(Process: Drill, screw, T1: Mill/router, 1.2 mm diameter, 3 mm Deep)
M6 T1  (Mill/router, 1.2 mm diameter)
G00 Z13.0000
M03 S1000
 X321.8079 Y141.5672
 Z2.0000
G01 Z-3.0000 F60
G00 Z13.0000
 X332.5939 Y225.1593
 Z2.0000
G01 Z-3.0000
G00 Z13.0000
 X280.6860 Y302.0100
 Z2.0000
G01 Z-3.0000
G00 Z13.0000
 X103.3899 Y277.0672
 Z2.0000
G01 Z-3.0000
G00 Z13.0000
 X9.0118 Y300.6618
 Z2.0000
G01 Z-3.0000
G00 Z13.0000
 X77.7730 Y158.4204
 Z2.0000
G01 Z-3.0000
G00 Z13.0000
 X8.3376 Y113.9279
 Z2.0000
G01 Z-3.0000
G00 Z13.0000
 X11.0342 Y18.8756
 Z2.0000
G01 Z-3.0000
G00 Z13.0000
 X195.7456 Y68.7612
 Z2.0000
G01 Z-3.0000
G00 Z13.0000
 X249.6760 Y34.3806
 Z2.0000
G01 Z-3.0000
G00 Z13.0000
 X166.0839 Y162.4652
 Z2.0000
G01 Z-3.0000
G00 Z13.0000
 X411.4671 Y78.8732
 Z2.0000
G01 Z-3.0000
G00 Z13.0000
 X505.1711 Y102.4677
 Z2.0000
G01 Z-3.0000
G00 Z13.0000
 X526.7432 Y14.8308
 Z2.0000
G01 Z-3.0000
G00 Z13.0000
 X614.3801 Y83.5921
 Z2.0000
G01 Z-3.0000
G00 Z13.0000
 X558.4273 Y185.3856
 Z2.0000
G01 Z-3.0000
G00 Z13.0000
 X631.9074 Y264.9329
 Z2.0000
G01 Z-3.0000
G00 Z13.0000
 X507.1935 Y292.5722
 Z2.0000
G01 Z-3.0000
G00 Z13.0000
 X464.0492 Y239.3160
 Z2.0000
G01 Z-3.0000
G00 Z13.0000
 X425.6238 Y174.5995
 Z2.0000
G01 Z-3.0000
G00 Z13.0000
M05
M05
M30
