(Filename: Kreis.tap)
(Post processor: EasyCNC.scpost)
(Date: 14.03.2011)
G71 (Units: Metric)
G40
G90
(Part: Kreis)
(Process: Drill, Bohrungen, T1: Mill/router, 1,2 mm diameter, 4,5 mm Deep)
M6 T1  (Mill/router, 1,2 mm diameter)
G00 Z13.0000
M03 S1000
 X30.0000 Y60.0000
 Z0.5000
G01 Z-2.5000 F30
G00 Z-1.5000
 Z-2.0000
G01 Z-4.5000
G00 Z13.0000
 X50.0000 Y40.0000
 Z0.5000
G01 Z-2.5000
G00 Z-1.5000
 Z-2.0000
G01 Z-4.5000
G00 Z13.0000
 X30.0000 Y20.0000
 Z0.5000
G01 Z-2.5000
G00 Z-1.5000
 Z-2.0000
G01 Z-4.5000
G00 Z13.0000
 X10.0000 Y40.0000
 Z0.5000
G01 Z-2.5000
G00 Z-1.5000
 Z-2.0000
G01 Z-4.5000
G00 Z13.0000
(Process: Outside Offset, 0, T1: Mill/router, 1,2 mm diameter, 4,5 mm Deep)
 X33.1200 Y41.2800
 Z2.0000
G01 Z-2.5000
G02 X34.4000 Y40.0000 I0.0000 J-1.2800 F120.0
 I-4.4000 J0.0000
G00 Z13.0000
 X33.1200 Y41.2800
 Z-0.5000
G01 Z-4.5000 F30
G02 X34.4000 Y40.0000 I0.0000 J-1.2800 F120.0
 I-4.4000 J0.0000
G00 Z13.0000
 X56.8800 Y38.7200
 Z2.0000
G01 Z-2.5000 F30
G02 X55.6000 Y40.0000 I0.0000 J1.2800 F120.0
G03 I-25.6000 J0.0000
G00 Z13.0000
 X56.8800 Y38.7200
 Z-0.5000
G01 Z-4.5000 F30
G02 X55.6000 Y40.0000 I0.0000 J1.2800 F120.0
G03 I-25.6000 J0.0000
G00 Z13.0000
M05
M05
M30
