(Exported by FreeCAD)
(Post Processor: grbl_post)
(Output Time:2021-03-25 13:40:36.708503)
(Begin preamble)
G17 G90
G21
(Begin operation: Fixture)
(Path: Fixture)
G54
(Finish operation: Fixture)
(Begin operation: Endmill004)
(Path: Endmill004)
(Endmill004)
(Begin toolchange)
( M6 T1.0 )
M3 S0.0
(Finish operation: Endmill004)
(Begin operation: Pocket_Shape)
(Path: Pocket_Shape)
(Pocket_Shape)
G0 Z5.000
G0 X332.000 Y22.000
G0 Z3.000
G1 X332.000 Y22.000 Z-4.000 F30.000
G1 X332.000 Y18.000 Z-4.000 F500.000
G1 X18.000 Y18.000 Z-4.000 F500.000
G1 X18.000 Y22.000 Z-4.000 F500.000
G1 X332.000 Y22.000 Z-4.000 F500.000
G1 X332.000 Y22.000 Z-8.000 F30.000
G1 X332.000 Y18.000 Z-8.000 F500.000
G1 X18.000 Y18.000 Z-8.000 F500.000
G1 X18.000 Y22.000 Z-8.000 F500.000
G1 X332.000 Y22.000 Z-8.000 F500.000
G1 X332.000 Y22.000 Z-10.000 F30.000
G1 X332.000 Y18.000 Z-10.000 F500.000
G1 X18.000 Y18.000 Z-10.000 F500.000
G1 X18.000 Y22.000 Z-10.000 F500.000
G1 X332.000 Y22.000 Z-10.000 F500.000
G0 Z5.000
G0 Z5.000
G0 X332.000 Y22.000
G0 Y53.000
G0 Y53.000 Z3.000
G1 X332.000 Y53.000 Z-4.000 F30.000
G1 X18.000 Y53.000 Z-4.000 F500.000
G1 X18.000 Y57.000 Z-4.000 F500.000
G1 X332.000 Y57.000 Z-4.000 F500.000
G1 X332.000 Y53.000 Z-4.000 F500.000
G1 X332.000 Y53.000 Z-8.000 F30.000
G1 X18.000 Y53.000 Z-8.000 F500.000
G1 X18.000 Y57.000 Z-8.000 F500.000
G1 X332.000 Y57.000 Z-8.000 F500.000
G1 X332.000 Y53.000 Z-8.000 F500.000
G1 X332.000 Y53.000 Z-10.000 F30.000
G1 X18.000 Y53.000 Z-10.000 F500.000
G1 X18.000 Y57.000 Z-10.000 F500.000
G1 X332.000 Y57.000 Z-10.000 F500.000
G1 X332.000 Y53.000 Z-10.000 F500.000
G0 Z5.000
G0 Z5.000
G0 X332.000 Y53.000
G0 Y88.000
G0 Y88.000 Z3.000
G1 X332.000 Y88.000 Z-4.000 F30.000
G1 X18.000 Y88.000 Z-4.000 F500.000
G1 X18.000 Y92.000 Z-4.000 F500.000
G1 X332.000 Y92.000 Z-4.000 F500.000
G1 X332.000 Y88.000 Z-4.000 F500.000
G1 X332.000 Y88.000 Z-8.000 F30.000
G1 X18.000 Y88.000 Z-8.000 F500.000
G1 X18.000 Y92.000 Z-8.000 F500.000
G1 X332.000 Y92.000 Z-8.000 F500.000
G1 X332.000 Y88.000 Z-8.000 F500.000
G1 X332.000 Y88.000 Z-10.000 F30.000
G1 X18.000 Y88.000 Z-10.000 F500.000
G1 X18.000 Y92.000 Z-10.000 F500.000
G1 X332.000 Y92.000 Z-10.000 F500.000
G1 X332.000 Y88.000 Z-10.000 F500.000
G0 Z5.000
G0 Z5.000
G0 X332.000 Y88.000
G0 Y123.000
G0 Y123.000 Z3.000
G1 X332.000 Y123.000 Z-4.000 F30.000
G1 X18.000 Y123.000 Z-4.000 F500.000
G1 X18.000 Y127.000 Z-4.000 F500.000
G1 X332.000 Y127.000 Z-4.000 F500.000
G1 X332.000 Y123.000 Z-4.000 F500.000
G1 X332.000 Y123.000 Z-8.000 F30.000
G1 X18.000 Y123.000 Z-8.000 F500.000
G1 X18.000 Y127.000 Z-8.000 F500.000
G1 X332.000 Y127.000 Z-8.000 F500.000
G1 X332.000 Y123.000 Z-8.000 F500.000
G1 X332.000 Y123.000 Z-10.000 F30.000
G1 X18.000 Y123.000 Z-10.000 F500.000
G1 X18.000 Y127.000 Z-10.000 F500.000
G1 X332.000 Y127.000 Z-10.000 F500.000
G1 X332.000 Y123.000 Z-10.000 F500.000
G0 Z5.000
G0 Z5.000
G0 X332.000 Y123.000
G0 Y158.000
G0 Y158.000 Z3.000
G1 X332.000 Y158.000 Z-4.000 F30.000
G1 X18.000 Y158.000 Z-4.000 F500.000
G1 X18.000 Y162.000 Z-4.000 F500.000
G1 X332.000 Y162.000 Z-4.000 F500.000
G1 X332.000 Y158.000 Z-4.000 F500.000
G1 X332.000 Y158.000 Z-8.000 F30.000
G1 X18.000 Y158.000 Z-8.000 F500.000
G1 X18.000 Y162.000 Z-8.000 F500.000
G1 X332.000 Y162.000 Z-8.000 F500.000
G1 X332.000 Y158.000 Z-8.000 F500.000
G1 X332.000 Y158.000 Z-10.000 F30.000
G1 X18.000 Y158.000 Z-10.000 F500.000
G1 X18.000 Y162.000 Z-10.000 F500.000
G1 X332.000 Y162.000 Z-10.000 F500.000
G1 X332.000 Y158.000 Z-10.000 F500.000
G0 Z5.000
G0 Z5.000
G0 X332.000 Y158.000
G0 Y193.000
G0 Y193.000 Z3.000
G1 X332.000 Y193.000 Z-4.000 F30.000
G1 X18.000 Y193.000 Z-4.000 F500.000
G1 X18.000 Y197.000 Z-4.000 F500.000
G1 X332.000 Y197.000 Z-4.000 F500.000
G1 X332.000 Y193.000 Z-4.000 F500.000
G1 X332.000 Y193.000 Z-8.000 F30.000
G1 X18.000 Y193.000 Z-8.000 F500.000
G1 X18.000 Y197.000 Z-8.000 F500.000
G1 X332.000 Y197.000 Z-8.000 F500.000
G1 X332.000 Y193.000 Z-8.000 F500.000
G1 X332.000 Y193.000 Z-10.000 F30.000
G1 X18.000 Y193.000 Z-10.000 F500.000
G1 X18.000 Y197.000 Z-10.000 F500.000
G1 X332.000 Y197.000 Z-10.000 F500.000
G1 X332.000 Y193.000 Z-10.000 F500.000
G0 Z5.000
G0 Z5.000
G0 X332.000 Y193.000
G0 Y228.000
G0 Y228.000 Z3.000
G1 X332.000 Y228.000 Z-4.000 F30.000
G1 X18.000 Y228.000 Z-4.000 F500.000
G1 X18.000 Y232.000 Z-4.000 F500.000
G1 X332.000 Y232.000 Z-4.000 F500.000
G1 X332.000 Y228.000 Z-4.000 F500.000
G1 X332.000 Y228.000 Z-8.000 F30.000
G1 X18.000 Y228.000 Z-8.000 F500.000
G1 X18.000 Y232.000 Z-8.000 F500.000
G1 X332.000 Y232.000 Z-8.000 F500.000
G1 X332.000 Y228.000 Z-8.000 F500.000
G1 X332.000 Y228.000 Z-10.000 F30.000
G1 X18.000 Y228.000 Z-10.000 F500.000
G1 X18.000 Y232.000 Z-10.000 F500.000
G1 X332.000 Y232.000 Z-10.000 F500.000
G1 X332.000 Y228.000 Z-10.000 F500.000
G0 Z5.000
G0 Z5.000
(Finish operation: Pocket_Shape)
(Begin operation: DressupTag001)
(Path: DressupTag001)
(Profile)
(Compensated Tool Path. Diameter: 6.0)
G0 Z5.000
G0 X349.776 Y249.777
G0 Z3.000
G1 X349.776 Y249.777 Z-4.350 F30.000
G2 X352.996 Y242.147 Z-4.350 I-7.780 J-7.779 K0.000 F500.000
G1 X353.000 Y8.000 Z-4.350 F500.000
G2 X342.147 Y-2.996 Z-4.350 I-11.002 J0.005 K0.000 F500.000
G1 X8.000 Y-3.000 Z-4.350 F500.000
G2 X-2.996 Y7.853 Z-4.350 I0.005 J11.002 K0.000 F500.000
G1 X-3.000 Y242.000 Z-4.350 F500.000
G2 X7.853 Y252.996 Z-4.350 I11.002 J-0.005 K0.000 F500.000
G1 X342.000 Y253.000 Z-4.350 F500.000
G2 X349.776 Y249.777 Z-4.350 I-0.005 J-11.002 K0.000 F500.000
G1 X349.776 Y249.777 Z-8.700 F30.000
G2 X352.996 Y242.147 Z-8.700 I-7.780 J-7.779 K0.000 F500.000
G1 X353.000 Y8.000 Z-8.700 F500.000
G2 X342.147 Y-2.996 Z-8.700 I-11.002 J0.005 K0.000 F500.000
G1 X8.000 Y-3.000 Z-8.700 F500.000
G2 X-2.996 Y7.853 Z-8.700 I0.005 J11.002 K0.000 F500.000
G1 X-3.000 Y242.000 Z-8.700 F500.000
G2 X7.853 Y252.996 Z-8.700 I11.002 J-0.005 K0.000 F500.000
G1 X342.000 Y253.000 Z-8.700 F500.000
G2 X349.776 Y249.777 Z-8.700 I-0.005 J-11.002 K0.000 F500.000
G1 X349.776 Y249.777 Z-13.000 F30.000
G2 X352.996 Y242.147 Z-13.000 I-7.780 J-7.779 K0.000 F500.000
G1 X353.000 Y8.000 Z-13.000 F500.000
G2 X342.147 Y-2.996 Z-13.000 I-11.002 J0.005 K0.000 F500.000
G1 X8.000 Y-3.000 Z-13.000 F500.000
G2 X-2.996 Y7.853 Z-13.000 I0.005 J11.002 K0.000 F500.000
G1 X-3.000 Y242.000 Z-13.000 F500.000
G2 X7.853 Y252.996 Z-13.000 I11.002 J-0.005 K0.000 F500.000
G1 X342.000 Y253.000 Z-13.000 F500.000
G2 X349.776 Y249.777 Z-13.000 I-0.005 J-11.002 K0.000 F500.000
G0 Z5.000
G0 Z5.000
(Finish operation: DressupTag001)
(Begin postamble)
M5
G17 G90
M2
