(Filename: SchneideHilfCuts.tap)
(Post processor: EasyCNC.scpost)
(Date: 19/08/11)
G71 (Units: Metric)
G40
G90
(Part: Langschwert)
(Process: No Offset, Schneide, T4: Mill/router, 3.175 mm diameter, 10.123 mm Deep)
M6 T4  (Mill/router, 3.175 mm diameter)
G00 Z6.0000
M03 S1000

 X372.6395 Y43.9823
 Z2.0000
G01 Z0.1230 F60
 Y77.4816  Z-4.123 F220
G00 Z6.0000
 Y39.8358
 Z2.0000
G01 Z0.1230 F60
 Y6.3201  Z-4.123 F220
G00 Z6.0000
 X386.2781 Y39.8358
 Z2.0000
G01 Z0.1230 F60
 Y6.7598  Z-4.123 F220
G00 Z6.0000
 Y43.9823
 Z2.0000
G01 Z0.1230 F60
 Y77.0812  Z-4.123 F220
G00 Z6.0000
 X400.7948 Y43.9823
 Z2.0000
G01 Z0.1230 F60
 Y76.6606  Z-4.123 F220
G00 Z6.0000
 Y39.8358
 Z2.0000
G01 Z0.1230 F60
 Y7.1597  Z-4.123 F220
G00 Z6.0000
 X416.1913 Y39.8358
 Z2.0000
G01 Z0.1230 F60
 Y7.6192  Z-4.123 F220
G00 Z6.0000
 Y43.9823
 Z2.0000
G01 Z0.1230 F60
 Y76.2275  Z-4.123 F220
G00 Z6.0000
 X430.7338 Y43.9823
 Z2.0000
G01 Z0.1230 F60
 Y75.7876  Z-4.123 F220
G00 Z6.0000
 Y39.8358
 Z2.0000
G01 Z0.1230 F60
 Y8.0283  Z-4.123 F220
G00 Z6.0000
 X446.1045 Y39.8358
 Z2.0000
G01 Z0.1230 F60
 Y8.4911  Z-4.123 F220
G00 Z6.0000
 Y43.9823
 Z2.0000
G01 Z0.1230 F60
 Y75.3357  Z-4.123 F220
G00 Z6.0000
 X459.7425 Y43.9823
 Z2.0000
G01 Z0.1230 F60
 Y74.9417  Z-4.123 F220
G00 Z6.0000
 Y39.8358
 Z2.0000
G01 Z0.1230 F60
 Y8.8981  Z-4.123 F220
G00 Z6.0000
 X475.1378 Y39.8358
 Z2.0000
G01 Z0.1230 F60
 Y9.3121  Z-4.123 F220
G00 Z6.0000
 Y43.9823
 Z2.0000
G01 Z0.1230 F60
 Y74.4965  Z-4.123 F220
G00 Z6.0000
 X491.4397 Y43.9823
 Z2.0000
G01 Z0.1230 F60
 Y74.0175  Z-4.123 F220
G00 Z6.0000
 Y39.8358
 Z2.0000
G01 Z0.1230 F60
 Y9.8274  Z-4.123 F220
G00 Z6.0000
 X505.0510 Y39.8358
 Z2.0000
G01 Z0.1230 F60
 Y10.2104  Z-4.123 F220
G00 Z6.0000
 Y43.9823
 Z2.0000
G01 Z0.1230 F60
 Y73.6200  Z-4.123 F220
G00 Z6.0000
 X519.9960 Y43.9823
 Z2.0000
G01 Z0.1230 F60
 Y73.1848  Z-4.123 F220
G00 Z6.0000
 Y39.8358
 Z2.0000
G01 Z0.1230 F60
 Y10.6507  Z-4.123 F220
G00 Z6.0000
 X535.4041 Y39.8358
 Z2.0000
G01 Z0.1230 F60
 Y11.0826  Z-4.123 F220
G00 Z6.0000
 Y43.9823
 Z2.0000
G01 Z0.1230 F60
 Y72.7295  Z-4.123 F220
G00 Z6.0000
 X550.7757 Y43.9823
 Z2.0000
G01 Z0.1230 F60
 Y72.2873  Z-4.123 F220
G00 Z6.0000
 Y39.8358
 Z2.0000
G01 Z0.1230 F60
 Y11.5505  Z-4.123 F220
G00 Z6.0000
 X565.3173 Y39.8358
 Z2.0000
G01 Z0.1230 F60
 Y11.9673  Z-4.123 F220
G00 Z6.0000
 Y43.9823
 Z2.0000
G01 Z0.1230 F60
 Y71.8375  Z-4.123 F220
G00 Z6.0000
 X580.2623 Y43.9823
 Z2.0000
G01 Z0.1230 F60
 Y71.4274  Z-4.123 F220
G00 Z6.0000
 Y39.8358
 Z2.0000
G01 Z0.1230 F60
 Y12.3588  Z-4.123 F220
G00 Z6.0000
 X596.1102 Y39.8358
 Z2.0000
G01 Z0.1230 F60
 Y12.9169  Z-4.123 F220
G00 Z6.0000
 Y43.9823
 Z2.0000
G01 Z0.1230 F60
 Y70.9541  Z-4.123 F220
G00 Z6.0000
 X610.1501 Y43.9823
 Z2.0000
G01 Z0.1230 F60
 Y70.5559  Z-4.123 F220
G00 Z6.0000
 Y39.8358
 Z2.0000
G01 Z0.1230 F60
 Y13.3175  Z-4.123 F220
G00 Z6.0000
 X626.0234 Y39.8358
 Z2.0000
G01 Z0.1230 F60
 Y13.7371  Z-4.123 F220
G00 Z6.0000
 Y43.9823
 Z2.0000
G01 Z0.1230 F60
 Y70.1155  Z-4.123 F220
G00 Z6.0000
 X640.9682 Y43.9823
 Z2.0000
G01 Z0.1230 F60
 Y69.6573  Z-4.123 F220
G00 Z6.0000
 Y39.8358
 Z2.0000
G01 Z0.1230 F60
 Y14.1796  Z-4.123 F220
G00 Z6.0000
 X655.4967 Y39.8358
 Z2.0000
G01 Z0.1230 F60
 Y14.5837  Z-4.123 F220
G00 Z6.0000
 Y43.9823
 Z2.0000
G01 Z0.1230 F60
 Y69.2239  Z-4.123 F220
G00 Z6.0000
 X670.4036 Y43.9823
 Z2.0000
G01 Z0.1230 F60
 Y68.7990  Z-4.123 F220
G00 Z6.0000
 Y39.8358
 Z2.0000
G01 Z0.1230 F60
 Y15.0183  Z-4.123 F220
G00 Z6.0000
 X685.8497 Y39.8358
 Z2.0000
G01 Z0.1230 F60
 Y15.4692  Z-4.123 F220
G00 Z6.0000
 Y43.9823
 Z2.0000
G01 Z0.1230 F60
 Y68.3470  Z-4.123 F220
G00 Z6.0000
 X700.7821 Y43.9823
 Z2.0000
G01 Z0.1230 F60
 Y67.9131  Z-4.123 F220
G00 Z6.0000
 Y39.8358
 Z2.0000
G01 Z0.1230 F60
 Y15.9474  Z-4.123 F220
G00 Z6.0000
 X715.3230 Y39.8358
 Z2.0000
G01 Z0.1230 F60
 Y16.3155  Z-4.123 F220
G00 Z6.0000
 Y43.9823
 Z2.0000
G01 Z0.1230 F60
 Y67.4922  Z-4.123 F220
G00 Z6.0000
 X731.1863 Y43.9823
 Z2.0000
G01 Z0.1230 F60
 Y67.0266  Z-4.123 F220
G00 Z6.0000
 Y39.8358
 Z2.0000
G01 Z0.1230 F60
 Y16.8039  Z-4.123 F220
G00 Z6.0000
 X744.7963 Y39.8358
 Z2.0000
G01 Z0.1230 F60
 Y17.2017  Z-4.123 F220
G00 Z6.0000
 Y43.9823
 Z2.0000
G01 Z0.1230 F60
 Y66.6157  Z-4.123 F220
G00 Z6.0000
 X760.6602 Y43.9823
 Z2.0000
G01 Z0.1230 F60
 Y66.1671  Z-4.123 F220
G00 Z6.0000
 Y39.8358
 Z2.0000
G01 Z0.1230 F60
 Y17.6565  Z-4.123 F220
G00 Z6.0000
 X775.5893 Y39.8358
 Z2.0000
G01 Z0.1230 F60
 Y18.0852  Z-4.123 F220
G00 Z6.0000
 Y43.9823
 Z2.0000
G01 Z0.1230 F60
 Y65.7237  Z-4.123 F220
G00 Z6.0000
 X790.3882 Y43.9823
 Z2.0000
G01 Z0.1230 F60
 Y65.3020  Z-4.123 F220
G00 Z6.0000
 Y39.8358
 Z2.0000
G01 Z0.1230 F60
 Y18.5015  Z-4.123 F220
G00 Z6.0000

(Tiefer)
 X372.6395 Y43.9823
 Z2.0000
G01 Z0.1230 F60
 Y77.4816  Z-9.123 F200
G00 Z6.0000
 Y39.8358
 Z2.0000
G01 Z0.1230 F60
 Y6.3201  Z-9.123 F200
G00 Z6.0000
 X386.2781 Y39.8358
 Z2.0000
G01 Z0.1230 F60
 Y6.7598  Z-9.123 F200
G00 Z6.0000
 Y43.9823
 Z2.0000
G01 Z0.1230 F60
 Y77.0812  Z-9.123 F200
G00 Z6.0000
 X400.7948 Y43.9823
 Z2.0000
G01 Z0.1230 F60
 Y76.6606  Z-9.123 F200
G00 Z6.0000
 Y39.8358
 Z2.0000
G01 Z0.1230 F60
 Y7.1597  Z-9.123 F200
G00 Z6.0000
 X416.1913 Y39.8358
 Z2.0000
G01 Z0.1230 F60
 Y7.6192  Z-9.123 F200
G00 Z6.0000
 Y43.9823
 Z2.0000
G01 Z0.1230 F60
 Y76.2275  Z-9.123 F200
G00 Z6.0000
 X430.7338 Y43.9823
 Z2.0000
G01 Z0.1230 F60
 Y75.7876  Z-9.123 F200
G00 Z6.0000
 Y39.8358
 Z2.0000
G01 Z0.1230 F60
 Y8.0283  Z-9.123 F200
G00 Z6.0000
 X446.1045 Y39.8358
 Z2.0000
G01 Z0.1230 F60
 Y8.4911  Z-9.123 F200
G00 Z6.0000
 Y43.9823
 Z2.0000
G01 Z0.1230 F60
 Y75.3357  Z-9.123 F200
G00 Z6.0000
 X459.7425 Y43.9823
 Z2.0000
G01 Z0.1230 F60
 Y74.9417  Z-9.123 F200
G00 Z6.0000
 Y39.8358
 Z2.0000
G01 Z0.1230 F60
 Y8.8981  Z-9.123 F200
G00 Z6.0000
 X475.1378 Y39.8358
 Z2.0000
G01 Z0.1230 F60
 Y9.3121  Z-9.123 F200
G00 Z6.0000
 Y43.9823
 Z2.0000
G01 Z0.1230 F60
 Y74.4965  Z-9.123 F200
G00 Z6.0000
 X491.4397 Y43.9823
 Z2.0000
G01 Z0.1230 F60
 Y74.0175  Z-9.123 F200
G00 Z6.0000
 Y39.8358
 Z2.0000
G01 Z0.1230 F60
 Y9.8274  Z-9.123 F200
G00 Z6.0000
 X505.0510 Y39.8358
 Z2.0000
G01 Z0.1230 F60
 Y10.2104  Z-9.123 F200
G00 Z6.0000
 Y43.9823
 Z2.0000
G01 Z0.1230 F60
 Y73.6200  Z-9.123 F200
G00 Z6.0000
 X519.9960 Y43.9823
 Z2.0000
G01 Z0.1230 F60
 Y73.1848  Z-9.123 F200
G00 Z6.0000
 Y39.8358
 Z2.0000
G01 Z0.1230 F60
 Y10.6507  Z-9.123 F200
G00 Z6.0000
 X535.4041 Y39.8358
 Z2.0000
G01 Z0.1230 F60
 Y11.0826  Z-9.123 F200
G00 Z6.0000
 Y43.9823
 Z2.0000
G01 Z0.1230 F60
 Y72.7295  Z-9.123 F200
G00 Z6.0000
 X550.7757 Y43.9823
 Z2.0000
G01 Z0.1230 F60
 Y72.2873  Z-9.123 F200
G00 Z6.0000
 Y39.8358
 Z2.0000
G01 Z0.1230 F60
 Y11.5505  Z-9.123 F200
G00 Z6.0000
 X565.3173 Y39.8358
 Z2.0000
G01 Z0.1230 F60
 Y11.9673  Z-9.123 F200
G00 Z6.0000
 Y43.9823
 Z2.0000
G01 Z0.1230 F60
 Y71.8375  Z-9.123 F200
G00 Z6.0000
 X580.2623 Y43.9823
 Z2.0000
G01 Z0.1230 F60
 Y71.4274  Z-9.123 F200
G00 Z6.0000
 Y39.8358
 Z2.0000
G01 Z0.1230 F60
 Y12.3588  Z-9.123 F200
G00 Z6.0000
 X596.1102 Y39.8358
 Z2.0000
G01 Z0.1230 F60
 Y12.9169  Z-9.123 F200
G00 Z6.0000
 Y43.9823
 Z2.0000
G01 Z0.1230 F60
 Y70.9541  Z-9.123 F200
G00 Z6.0000
 X610.1501 Y43.9823
 Z2.0000
G01 Z0.1230 F60
 Y70.5559  Z-9.123 F200
G00 Z6.0000
 Y39.8358
 Z2.0000
G01 Z0.1230 F60
 Y13.3175  Z-9.123 F200
G00 Z6.0000
 X626.0234 Y39.8358
 Z2.0000
G01 Z0.1230 F60
 Y13.7371  Z-9.123 F200
G00 Z6.0000
 Y43.9823
 Z2.0000
G01 Z0.1230 F60
 Y70.1155  Z-9.123 F200
G00 Z6.0000
 X640.9682 Y43.9823
 Z2.0000
G01 Z0.1230 F60
 Y69.6573  Z-9.123 F200
G00 Z6.0000
 Y39.8358
 Z2.0000
G01 Z0.1230 F60
 Y14.1796  Z-9.123 F200
G00 Z6.0000
 X655.4967 Y39.8358
 Z2.0000
G01 Z0.1230 F60
 Y14.5837  Z-9.123 F200
G00 Z6.0000
 Y43.9823
 Z2.0000
G01 Z0.1230 F60
 Y69.2239  Z-9.123 F200
G00 Z6.0000
 X670.4036 Y43.9823
 Z2.0000
G01 Z0.1230 F60
 Y68.7990  Z-9.123 F200
G00 Z6.0000
 Y39.8358
 Z2.0000
G01 Z0.1230 F60
 Y15.0183  Z-9.123 F200
G00 Z6.0000
 X685.8497 Y39.8358
 Z2.0000
G01 Z0.1230 F60
 Y15.4692  Z-9.123 F200
G00 Z6.0000
 Y43.9823
 Z2.0000
G01 Z0.1230 F60
 Y68.3470  Z-9.123 F200
G00 Z6.0000
 X700.7821 Y43.9823
 Z2.0000
G01 Z0.1230 F60
 Y67.9131  Z-9.123 F200
G00 Z6.0000
 Y39.8358
 Z2.0000
G01 Z0.1230 F60
 Y15.9474  Z-9.123 F200
G00 Z6.0000
 X715.3230 Y39.8358
 Z2.0000
G01 Z0.1230 F60
 Y16.3155  Z-9.123 F200
G00 Z6.0000
 Y43.9823
 Z2.0000
G01 Z0.1230 F60
 Y67.4922  Z-9.123 F200
G00 Z6.0000
 X731.1863 Y43.9823
 Z2.0000
G01 Z0.1230 F60
 Y67.0266  Z-9.123 F200
G00 Z6.0000
 Y39.8358
 Z2.0000
G01 Z0.1230 F60
 Y16.8039  Z-9.123 F200
G00 Z6.0000
 X744.7963 Y39.8358
 Z2.0000
G01 Z0.1230 F60
 Y17.2017  Z-9.123 F200
G00 Z6.0000
 Y43.9823
 Z2.0000
G01 Z0.1230 F60
 Y66.6157  Z-9.123 F200
G00 Z6.0000
 X760.6602 Y43.9823
 Z2.0000
G01 Z0.1230 F60
 Y66.1671  Z-9.123 F200
G00 Z6.0000
 Y39.8358
 Z2.0000
G01 Z0.1230 F60
 Y17.6565  Z-9.123 F200
G00 Z6.0000
 X775.5893 Y39.8358
 Z2.0000
G01 Z0.1230 F60
 Y18.0852  Z-9.123 F200
G00 Z6.0000
 Y43.9823
 Z2.0000
G01 Z0.1230 F60
 Y65.7237  Z-9.123 F200
G00 Z6.0000
 X790.3882 Y43.9823
 Z2.0000
G01 Z0.1230 F60
 Y65.3020  Z-9.123 F200
G00 Z6.0000
 Y39.8358
 Z2.0000
G01 Z0.1230 F60
 Y18.5015  Z-9.123 F200
G00 Z6.0000
M05
M05
M30
